X: 21349
T: Kerry Bar
R: polka
M: 2/4
K: Amajor
|:c2 BA|ce e2|ce fe|cB B2|
c2 BA|ce af|ec Ac|BA A2:|
|:f2 ed|fa af|ec AB|cB B2|f2 ed|
fa af|1 ec Ac|BA Ae:|2 g2 ed|Bc dB||

